X: 1
T: Willie Whastle
C: Oxford
R: march
Z: 2014 John Chambers <jc:trillian.mit.edu>
S: page from Concord Slow Scottish Session collection "Arr. \251 B. McOwen, April 1996"
N: The excess "unneeded" accidentals are in the MS.
M: C|
L: 1/8
K: E
B2 |\
"E"E3F G2FE | "D"F2F2 =d2cB | "D"A2Bc =d2cB | "D"A2=D2F2A2 |\
"E"E3F G2FE | "E"F2G2 e2^dc | "E"B2cB "B7"A2BA | "E"G2E2 G2 :|
B2 |\
"E"e3d e2B2 | "E"edef e2Bc | "D"=d3e d2cB | "D"A2=D2 F2A2 |\
"E"E3F G2FE | "E"F2G2 e2^dc | "E"B2cB "B7"A2BA | "E"G2E2 G2 |]
B2 |\
"E"e3^d e2B2 | edef e2Bc | "D"=d3e d2cB | "D"A2=D2 F2A2 |\
"E"E3F G2FE | "E"F2G2 e2^dc | "E" B2cB "B7"A2BA | "E"G2E2 E2 |]
